packages/elvis-assets-icons/icons/svg/src/call.svg

<svg width="24" height="24" viewBox="0 0 24 24" fill="none" xmlns="http://www.w3.org/2000/svg">
<g clip-path="url(#clip0)">
<path d="M18.0349 24C16.8419 24 15.6729 23.6572 14.6529 23.0085C14.6499 23.0065 14.6269 22.9915 14.6239 22.9905C9.23092 19.3461 4.64892 14.7652 1.00492 9.3737C-0.601076 6.85086 -0.254076 3.62934 1.84492 1.5313L2.61892 0.757653C3.10892 0.268877 3.75992 0 4.45392 0C5.14792 0 5.79892 0.268877 6.28792 0.757653L9.54992 4.02216C10.5599 5.03369 10.5589 6.67794 9.54792 7.68748C9.12193 8.11428 9.12192 8.80896 9.54892 9.23577C9.54892 9.23577 14.7769 14.4624 14.7809 14.4664C14.9739 14.6583 15.2489 14.7722 15.5409 14.7722C15.8329 14.7722 16.1079 14.6583 16.3139 14.4524C16.8039 13.9636 17.4549 13.6937 18.1489 13.6937C18.8429 13.6937 19.4939 13.9626 19.9839 14.4514L23.2449 17.7099C24.2559 18.7214 24.2559 20.3667 23.2449 21.3772L22.4709 22.1508C21.2779 23.3433 19.7019 24 18.0349 24ZM15.4539 21.741C16.2519 22.2408 17.1369 22.4977 18.0369 22.4977C19.3039 22.4977 20.5009 21.9979 21.4089 21.0903L22.1829 20.3167C22.6089 19.8899 22.6089 19.1952 22.1829 18.7684L18.9229 15.5109C18.7169 15.305 18.4419 15.192 18.1489 15.192C17.8559 15.192 17.5809 15.306 17.3749 15.5119C16.8859 16.0007 16.2339 16.2705 15.5409 16.2705C14.8519 16.2705 14.2039 16.0047 13.7169 15.5209L8.48892 10.2943C7.47792 9.28275 7.47792 7.6375 8.48892 6.62696C8.91292 6.20216 8.91492 5.50947 8.48992 5.08267C8.48492 5.07767 8.46793 5.05968 8.46292 5.05468L5.22692 1.81717C5.02092 1.61226 4.74592 1.49931 4.45392 1.49931C4.16092 1.49931 3.88592 1.61326 3.67892 1.81917L2.90492 2.59181C1.30792 4.18808 1.03892 6.63496 2.25192 8.54009C5.78192 13.7627 10.2249 18.2067 15.4539 21.741Z" fill="black"/>
</g>
<defs>
<clipPath id="clip0">
<path d="M0 0H24V24H0V0Z" fill="white"/>
</clipPath>
</defs>
</svg>

<svg width="24" height="24" fill="none" xmlns="http://www.w3.org/2000/svg"><g clip-path="url(#clip0)"><path d="M18.035 24a6.295 6.295 0 01-3.411-1.01A50.474 50.474 0 011.004 9.375C-.6 6.85-.253 3.629 1.845 1.53L2.62.758A2.58 2.58 0 014.454 0c.694 0 1.345.269 1.834.758L9.55 4.022a2.595 2.595 0 01-.002 3.665 1.097 1.097 0 000 1.549l5.233 5.23c.193.192.468.306.76.306s.567-.114.773-.32a2.58 2.58 0 011.835-.758 2.58 2.58 0 011.835.757l3.26 3.259a2.596 2.596 0 010 3.667l-.773.774A6.241 6.241 0 0118.035 24zm-2.581-2.259c.798.5 1.683.757 2.583.757 1.267 0 2.464-.5 3.372-1.408l.774-.773a1.098 1.098 0 000-1.549l-3.26-3.257a1.087 1.087 0 00-.774-.319c-.293 0-.568.114-.774.32a2.578 2.578 0 01-1.834.758 2.57 2.57 0 01-1.824-.75l-5.228-5.226a2.596 2.596 0 010-3.667 1.096 1.096 0 000-1.544l-.026-.028-3.236-3.238a1.09 1.09 0 00-.773-.318c-.293 0-.568.114-.775.32l-.774.773a4.752 4.752 0 00-.653 5.948 48.957 48.957 0 0013.202 13.201z" fill="#000"/></g><defs><clipPath id="clip0"><path d="M0 0h24v24H0V0z" fill="#fff"/></clipPath></defs></svg>
